svg/star_box.svg

<svg xmlns="http://www.w3.org/2000/svg" viewBox="0 0 24 24"><path d="M19 3a2 2 0 0 1 2 2v14a2 2 0 0 1-2 2H5a2 2 0 0 1-2-2V5a2 2 0 0 1 2-2zm-3.42 14-.95-4.08 3.16-2.73-4.17-.36L12 6l-1.62 3.84-4.17.36 3.16 2.73L8.42 17 12 14.84z"/></svg>

<?xml version="1.0" encoding="UTF-8"?><!DOCTYPE svg PUBLIC "-//W3C//DTD SVG 1.1//EN" "http://www.w3.org/Graphics/SVG/1.1/DTD/svg11.dtd"><svg xmlns="http://www.w3.org/2000/svg" xmlns:xlink="http://www.w3.org/1999/xlink" version="1.1" id="mdi-star-box" width="24" height="24" viewBox="0 0 24 24"><path d="M19,3A2,2 0 0,1 21,5V19C21,20.11 20.1,21 19,21H5A2,2 0 0,1 3,19V5A2,2 0 0,1 5,3H19M15.58,17L14.63,12.92L17.79,10.19L13.62,9.83L12,6L10.38,9.84L6.21,10.2L9.37,12.93L8.42,17L12,14.84L15.58,17Z" /></svg>
